static/client-logos/steadkey-logo.svg

<?xml version="1.0" encoding="UTF-8"?>
<svg width="59px" height="60px" viewBox="0 0 59 60" version="1.1" xmlns="http://www.w3.org/2000/svg" xmlns:xlink="http://www.w3.org/1999/xlink">
    <!-- Generator: Sketch 49.2 (51160) - http://www.bohemiancoding.com/sketch -->
    <title>steadkey-logo</title>
    <desc>Created with Sketch.</desc>
    <defs></defs>
    <g id="steadkey-logo" stroke="none" stroke-width="1" fill="none" fill-rule="evenodd" fill-opacity="0.799999952">
        <path d="M54.5497922,20.7031401 C54.5609193,19.8318175 54.1228791,19.0160895 53.3903933,18.5440817 L31.7740449,3.51827192 C31.1503387,3.15310456 30.4350637,2.97428581 29.7128912,3.00298352 C28.9748304,2.97867975 28.2441982,3.15688271 27.6002088,3.51827192 L19.4586521,8.67115594 L19.4586521,7.64057913 C19.4586521,5.90405722 18.4280752,5.71855339 17.9591628,5.71855339 C17.861258,5.71855339 17.8045763,5.71855339 17.6963657,5.71855339 L17.5469321,5.71855339 L11.9354414,5.71855339 C10.0082628,5.73401205 9.15288402,6.71821289 9.15288402,7.64057913 L9.15288402,15.9882512 L5.3861258,18.5646932 C4.53630827,19.1265549 4.01782761,20.0709992 4,21.0896064 L4,45.9265074 C4,48.6575359 5.91687285,50.564103 8.4160216,50.564103 L23.771616,50.564103 L24.4311851,51.4710106 C26.2913763,53.9959237 27.7032665,55.6706111 27.857853,55.850962 L28.3319183,56.2992629 C28.638108,56.6135135 29.0698934,56.7725923 29.5067759,56.7321052 C29.9436584,56.7725923 30.3754438,56.6135135 30.6816334,56.2992629 L31.1608517,55.7839745 C31.3515084,55.5572476 33.098336,53.5579286 35.2831589,50.5331857 L51.2313349,50.5331857 C52.2979819,50.5331857 54.4982634,50.0797319 54.4982634,45.8955901 L54.5497922,20.7031401 Z M29.9962999,54.8667611 L29.5170817,55.4284255 L29.0430163,54.8667611 C28.8729712,54.6657987 27.4971511,53.0271816 25.6833359,50.5692559 L24.9876966,49.6108195 L24.9361678,49.5386791 L24.2199169,48.5081023 C20.4067827,43.056351 15.7588813,35.1775913 15.7588813,29.2260103 C15.7588813,21.3678622 21.9423421,14.978286 29.5428461,14.978286 C37.14335,14.978286 43.2958935,21.3678622 43.3268108,29.2208574 C43.3525752,35.1724384 38.6892152,43.0511981 34.8657753,48.4977965 L34.1598302,49.4923031 L34.0876898,49.5953608 L33.3714389,50.564103 C31.5627766,53.0220287 30.1714979,54.6657987 30.0014528,54.8667611 L29.9962999,54.8667611 Z M30.7228565,31.6066427 C31.824573,30.9236613 32.4935136,29.7183982 32.4902957,28.4221604 C32.501723,26.6340978 31.0629389,25.1745621 29.2748961,25.1603848 C28.4235437,25.1562719 27.6056492,25.4915911 27.0021963,26.0921428 C26.3987434,26.6926945 26.0594865,27.5089635 26.0594965,28.3603258 C26.0594965,29.6949227 26.8736522,31.2098706 28.0330511,31.6993946 L26.0440378,38.7124698 L32.742787,38.7124698 L30.7228565,31.6066427 Z" id="Shape" fill="#000000" fill-rule="nonzero"></path>
    </g>
</svg>

<svg height="60" viewBox="0 0 59 60" width="59" xmlns="http://www.w3.org/2000/svg"><path d="m54.5497922 20.7031401c.0111271-.8713226-.4269131-1.6870506-1.1593989-2.1590584l-21.6163484-15.02580978c-.6237062-.36516736-1.3389812-.54398611-2.0611537-.5152884-.7380608-.02430377-1.468693.15389919-2.1126824.5152884l-8.1415567 5.15288402v-1.03057681c0-1.73652191-1.0305769-1.92202574-1.4994893-1.92202574-.0979048 0-.1545865 0-.2627971 0h-.1494336-5.6114907c-1.9271786.01545866-2.78255738.9996595-2.78255738 1.92202574v8.34767207l-3.76675822 2.576442c-.84981753.5618617-1.36829819 1.506306-1.3861258 2.5249132v24.836901c0 2.7310285 1.91687285 4.6375956 4.4160216 4.6375956h15.3555944l.6595691.9069076c1.8601912 2.5249131 3.2720814 4.1996005 3.4266679 4.3799514l.4740653.4483009c.3061897.3142506.7379751.4733294 1.1748576.4328423.4368825.0404871.8686679-.1185917 1.1748575-.4328423l.4792183-.5152884c.1906567-.2267269 1.9374843-2.2260459 4.1223072-5.2507888h15.948176c1.066647 0 3.2669285-.4534538 3.2669285-4.6375956zm-24.5534923 34.163621-.4792182.5616644-.4740654-.5616644c-.1700451-.2009624-1.5458652-1.8395795-3.3596804-4.2975052l-.6956393-.9584364-.0515288-.0721404-.7162509-1.0305768c-3.8131342-5.4517513-8.4610356-13.330511-8.4610356-19.282092 0-7.8581481 6.1834608-14.2477243 13.7839648-14.2477243 7.6005039 0 13.7530474 6.3895762 13.7839647 14.2425714.0257644 5.951581-4.6375956 13.8303407-8.4610355 19.2769391l-.7059451.9945066-.0721404.1030577-.7162509.9687422c-1.8086623 2.4579257-3.199941 4.1016957-3.3699861 4.3026581zm.7265566-23.2601184c1.1017165-.6829814 1.7706571-1.8882445 1.7674392-3.1844823.0114273-1.7880626-1.4273568-3.2475983-3.2153996-3.2617756-.8513524-.0041129-1.6692469.3312063-2.2726998.931758s-.9427098 1.4168207-.9426998 2.268183c0 1.3345969.8141557 2.8495448 1.9735546 3.3390688l-1.9890133 7.0130752h6.6987492z" fill-opacity=".8"/></svg>
